X: 7779
T: Come Hither On The Boys
R: polka
M: 2/4
K: Gmajor
|GG/A/ BB/B/|cd/c/ B2|A/G/A/B/ cF|AGED|
GG/A/ BB/B/|cd/c/ B2|A/G/A/B/ cF|AG G2||
dD/D/ DD/D/|ED D2|A/G/A/B/ cF|AGED|
dD/D/ DD/D/|ED D2|A/G/A/B/ cF|AG G2||

